X:1
T:Title
%%score { ( 1 3 ) | 2 }
L:1/8
M:4/4
K:Bb
V:1 treble nm="Grand Piano"
V:3 treble 
V:2 bass 
V:1
 z4 z2[Q:1/4=80] [B,D][CE] | [DF][_D=E][=DF][_EG] [DF]2 [Fd][Fd] | %2
 [Gc][GB][FA][EG] [DF]2 [DF][EG] | F2 E2 E2 G2 | [EG]2 [DF]4 [B,D][CE] | %5
 [DF][_D=E][=DF][_EG] [DF]2 [Fd][Fd] | [Gc][GB][FA][EG] [DF]2 [DF][DF] | [EG][FA][GB]G FFBd | %8
[M:7/8] c- c3 [DB]3 |[M:1/4] z2 |[M:4/4] [Fd]3 [Ec] [DB]2 [EB][FB] | [GB]3 [FA] G2 B2 | %12
 F=EFG B2 [Fd]2 | z4 c2 z2 | [Fd]3 [Ec] [DB]2 [EB][FB] | [GB][^FA][GB][FA] [Ac][GB][=FA]G | %16
 FFBc d2 B>d |[M:3/4] c4 [DB]2 |] %18
V:2
 z4 z2 [B,,F,][B,,F,] | [B,,B,][B,,B,][B,,B,][B,,B,] [B,,B,]2 [B,,B,][B,,B,] | %2
 [E,B,][E,B,][E,B,][E,B,] [B,,B,]2 [B,,B,][B,,B,] | [F,A,D]2 [F,A,C]2 [F,A,C]2 [F,A,E]2 | %4
 [B,,B,]2 [B,,B,]4 [B,,F,][B,,F,] | [B,,B,][B,,B,][B,,B,][B,,B,] [B,,B,]2 [B,,B,][B,,B,] | %6
 [E,B,][E,B,][E,B,][E,B,] [B,,B,]2 [B,,B,][B,,B,] | %7
 [E,B,][E,B,][E,B,][E,B,E] [F,B,D][F,B,D][F,B,D][F,B,F] |[M:7/8] [F,A,E]- [F,A,E]3 [B,,B,]3 | %9
[M:1/4] [F,F]2 |[M:4/4] [B,,B,]3 [B,,F,] [B,,F,]2 [C,F,][D,B,] | [E,E]3 [E,E] [E,B,E]2 [G,B,E]2 | %12
 [B,D][B,_D][B,=D][B,E] [B,D]2 [B,,B,]2 | [F,B,F]4 .[F,A,F]2 [D,B,][C,A,] | %14
 [B,,B,]3 [B,,F,] [B,,F,]2 [C,F,][D,B,] | [E,E][E,E][E,E][E,E] [E,E][E,E][E,E][E,B,E] | %16
 [F,B,D][F,B,D][G,B,=E][G,B,E] [F,B,F]2 [F,DF]>[F,B,F] |[M:3/4] [F,A,E]4 [B,,F,]2 |] %18
V:3
 x8 | x8 | x8 | x8 | x8 | x8 | x8 | x8 |[M:7/8] x7 |[M:1/4] x2 |[M:4/4] x8 | x8 | x8 | d4 z E,FF | %14
 x8 | x8 | x8 |[M:3/4] x6 |] %18

